X: 1017
T: Old as the Hills
N:"Collected by F.O'Neill"
B:O'Neill's 1017
Z:Transcribed by Dan G. Petersen, dangp@post6.tele.dk
M:6/8
L:1/8
K:A
a|ABA cBA|d2e fga|ABA c2A|dBG Bcd|
ecA Ace|d2e fga|ece dBG|Ace a2:|
e|c2e ecA|Aca ecA|c2e ecA|Bcd dcB|
c2e ecA|Acg fga|ece dBG|Ace a2:|


